X:1
T: Month of May
C:
R:Reel
Q: 232
K:G
M:4/4
L:1/8
|:d2|gd gd Bc dB|ec ec A2 AB|cA cA FG AF|GA Bc d2 d2|
gd gd Bc dB|ec ec A2 AB|cA cA FG AF|G2 B2 G2:|
|:D2|B,D GD BA GF|EC EA cB AG|FD FA cd BA|GF GA B2 D2|
B,D GD BA GF|EC EA cB AG|FG AB cd ef|g2 b2 g2:|
